assets/Parachute/Flat/parachute_flat.svg

<svg width="32" height="32" viewBox="0 0 32 32" fill="none" xmlns="http://www.w3.org/2000/svg">
<path d="M16.4738 21.0049H15.0238C14.8138 21.0049 14.6438 21.1749 14.6438 21.3849V22.4749H16.4838V24.4349H17.4938C17.8538 24.4349 18.1338 24.1449 18.1338 23.7949V21.6449C18.1338 21.2849 17.8438 21.0049 17.4938 21.0049H16.4738Z" fill="#433B6B"/>
<path d="M14.1138 26.165L14.9638 27.585C15.0038 27.645 14.9738 27.725 14.9138 27.735L13.6538 28.125C13.5738 28.145 13.4938 28.095 13.4738 28.015C13.4638 27.975 13.4738 27.925 13.5038 27.895L13.8638 27.445C13.9138 27.395 13.9238 27.315 13.8838 27.255L13.4638 26.535L14.1138 26.165ZM17.2838 28.7951L16.4238 28.0051L16.9138 27.3151L18.0338 28.3651C18.0838 28.4151 18.1138 28.4951 18.1038 28.5751L17.9538 29.5751C17.9238 29.7551 17.6638 29.7851 17.6038 29.6051L17.3638 28.9251C17.3538 28.8751 17.3238 28.8251 17.2838 28.7951Z" fill="#635994"/>
<path d="M18.4138 20.145V21.145C18.4138 21.315 18.2738 21.455 18.1038 21.455H14.2938C14.1238 21.455 13.9838 21.315 13.9838 21.145V20.145H13.0938V21.145C13.0938 21.805 13.6338 22.345 14.2938 22.345H15.0138V23.995H13.8638C13.4738 23.995 13.1138 24.195 12.9138 24.525C12.7138 24.855 12.6938 25.265 12.8838 25.615L13.4038 26.725C13.5038 26.905 13.6938 27.025 13.8938 27.025C13.9838 27.025 14.0738 27.005 14.1538 26.965C14.4238 26.825 14.5338 26.485 14.3938 26.215L13.8738 25.115H16.0138L15.6438 25.885C15.3738 26.465 15.4738 27.145 15.8938 27.615L16.4638 28.265C16.5738 28.385 16.7238 28.455 16.8838 28.455C17.0238 28.455 17.1538 28.405 17.2538 28.315C17.4838 28.105 17.5038 27.755 17.2938 27.525L16.7238 26.875C16.5938 26.735 16.5638 26.535 16.6538 26.365L17.3738 24.855C17.3838 24.835 17.3938 24.805 17.4038 24.785C17.4338 24.725 17.4438 24.655 17.4438 24.585V22.365H18.1038C18.7638 22.365 19.3038 21.825 19.3038 21.165V20.165H18.4138V20.145Z" fill="#FF6723"/>
<path d="M15.0138 21.25V22.9949C14.8038 22.9949 14.6338 22.8249 14.6338 22.6149V21.4449L15.0138 21.25Z" fill="#433B6B"/>
<path d="M17.4438 21.4449V22.9949C17.2338 22.9949 17.0638 22.8249 17.0638 22.6149V21.25L17.4438 21.4449Z" fill="#433B6B"/>
<path d="M15.7838 19.2451H16.4838C16.9138 19.2451 17.2538 19.5851 17.2638 20.0351V20.8251C17.2638 20.8494 17.2603 20.8726 17.2538 20.8943V20.9451C17.2538 21.5051 16.7938 21.9651 16.2238 21.9651H16.0438C15.5738 21.9651 15.1938 21.5851 15.1938 21.1151V20.4751H15.8138V20.3351H15.1538C15.0738 20.3351 15.0138 20.2751 15.0138 20.1951V20.0251C15.0138 19.5951 15.3538 19.2451 15.7838 19.2451Z" fill="#00A6ED"/>
<path d="M16.4738 20.595H17.2638V20.835H16.4738V20.595Z" fill="#433B6B"/>
<path d="M15.0138 23.5549H17.4438V23.9949H15.0138V23.5549Z" fill="#433B6B"/>
<path d="M16.9838 20.4651C17.0611 20.4651 17.1238 20.4024 17.1238 20.3251C17.1238 20.2477 17.0611 20.1851 16.9838 20.1851C16.9065 20.1851 16.8438 20.2477 16.8438 20.3251C16.8438 20.4024 16.9065 20.4651 16.9838 20.4651Z" fill="#5092FF"/>
<path d="M18.2538 11.4998C18.2538 11.2698 18.4338 11.0898 18.6638 11.0898C18.8938 11.0898 19.0738 11.2698 19.0738 11.4998V19.1585C19.261 19.2282 19.426 19.3442 19.5547 19.4924L26.5588 13.4999C26.7288 13.3499 26.9888 13.3699 27.1388 13.5399C27.2888 13.7099 27.2688 13.9699 27.0988 14.1199L19.8432 20.3348C19.822 20.9664 19.3005 21.4749 18.6638 21.4749C18.0138 21.4749 17.4838 20.9449 17.4838 20.2949V20.2649C17.4838 19.7589 17.8049 19.3257 18.2538 19.1585V16.3649H13.7538V19.1585C14.2027 19.3257 14.5238 19.7589 14.5238 20.2649V20.2949C14.5238 20.9449 13.9938 21.4749 13.3438 21.4749C12.6938 21.4749 12.1638 20.9449 12.1638 20.2949V20.2649C12.1638 20.222 12.1661 20.1797 12.1706 20.1381L5.13879 14.1199C4.96879 13.9699 4.94879 13.7099 5.09879 13.5399C5.24879 13.3699 5.50879 13.3499 5.67879 13.4999L12.5616 19.3826C12.6698 19.2865 12.7958 19.2099 12.9338 19.1585V11.4998C12.9338 11.2698 13.1138 11.0898 13.3438 11.0898C13.5738 11.0898 13.7538 11.2698 13.7538 11.4998V15.5449H18.2538V11.4998ZM19.0238 20.2649C19.0238 20.0649 18.8638 19.9049 18.6638 19.9049C18.4638 19.9049 18.3038 20.0649 18.3038 20.2649V20.2949C18.3038 20.4949 18.4638 20.6549 18.6638 20.6549C18.8638 20.6549 19.0238 20.4949 19.0238 20.2949V20.2649Z" fill="#D3D3D3"/>
<path d="M16.2938 20.325H15.3138C15.1038 20.325 14.9338 20.495 14.9338 20.705C14.9338 20.915 15.1038 21.085 15.3138 21.085H15.3238C15.4238 21.085 15.5138 21.025 15.5438 20.935L15.5638 20.875C15.5838 20.825 15.6338 20.795 15.6838 20.795C15.7338 20.795 15.7838 20.825 15.8038 20.875L15.8238 20.935C15.8638 21.025 15.9538 21.085 16.0438 21.085H16.2738C16.4838 21.085 16.6538 20.915 16.6538 20.705C16.6738 20.505 16.5038 20.325 16.2938 20.325Z" fill="#26EAFC"/>
<path d="M15.3138 20.2349H16.2938C16.5515 20.2349 16.7665 20.4543 16.7438 20.7093C16.7414 20.9669 16.532 21.1748 16.2738 21.1748H16.0438C15.9156 21.1748 15.7949 21.0913 15.7416 20.9713L15.7381 20.9634L15.7196 20.9066C15.7138 20.8943 15.6994 20.8848 15.6838 20.8848C15.6682 20.8848 15.6538 20.8943 15.648 20.9066L15.6292 20.9633C15.5856 21.094 15.4581 21.1748 15.3238 21.1748H15.3138C15.0541 21.1748 14.8439 20.9645 14.8439 20.7048C14.8439 20.4451 15.0541 20.2349 15.3138 20.2349ZM15.0238 20.7048C15.0238 20.8651 15.1535 20.9949 15.3138 20.9949H15.3238C15.3895 20.9949 15.4421 20.9556 15.4585 20.9064L15.4802 20.8413C15.5149 20.7544 15.6001 20.7049 15.6838 20.7049C15.7675 20.7049 15.8526 20.7545 15.8873 20.8414L15.8893 20.8463L15.9076 20.9018C15.935 20.9598 15.9931 20.9949 16.0438 20.9949H16.2738C16.4341 20.9949 16.5639 20.8651 16.5639 20.7048V20.6958C16.5782 20.5527 16.4546 20.4148 16.2938 20.4148H15.3138C15.1535 20.4148 15.0238 20.5445 15.0238 20.7048Z" fill="#D3D3D3"/>
<path d="M13.3138 20.715H13.3338C13.5538 20.715 13.7238 20.545 13.7238 20.335V20.125H12.9338V20.335C12.9338 20.545 13.1038 20.715 13.3138 20.715ZM18.2738 20.355C18.2738 20.565 18.4438 20.745 18.6638 20.745C18.8838 20.745 19.0538 20.565 19.0638 20.355V20.145H18.2738V20.355Z" fill="#FF6723"/>
<path d="M20.2038 4.08498L22 8.5L19.1053 12.0042C18.1534 11.8201 17.1143 11.705 16.0038 11.705C14.8785 11.7079 13.8264 11.8273 12.8644 12.0163C12.878 12.0112 12.8911 12.0074 12.9038 12.005L9.5 8.5L11.8038 4.08499C11.8138 4.06499 11.8338 4.045 11.8538 4.025C13.9638 1.325 18.0538 1.325 20.1638 4.025C20.1738 4.035 20.1813 4.045 20.1888 4.055C20.1953 4.06364 20.2018 4.07228 20.2099 4.08092L20.2038 4.08498Z" fill="#00D26A"/>
<path d="M5.2538 6.41484C5.2538 6.41484 5.8238 5.24484 7.1238 4.46484L11.4238 12.3648C9.7538 12.8548 8.4438 13.5048 7.6338 13.9748C7.0438 14.3248 6.4038 14.4848 5.7638 14.4848C4.4738 14.4848 3.2138 13.8148 2.5238 12.6248C2.1738 12.0248 2.0138 11.3748 2.0138 10.7348C1.7538 7.12484 5.2538 6.41484 5.2538 6.41484Z" fill="#F9C23C"/>
<path d="M29.9938 10.7249C29.9938 11.3749 29.8338 12.0249 29.4838 12.6149C28.4438 14.4049 26.1538 15.0049 24.3738 13.9749C23.6438 13.5449 22.5138 12.9749 21.0738 12.5149L26.4538 5.92493C26.6538 6.20493 26.7538 6.40493 26.7538 6.40493C26.7538 6.40493 30.2538 7.11493 29.9938 10.7249Z" fill="#F9C23C"/>
<path d="M23.9038 4.02498C25.5238 4.54498 26.3838 5.78498 26.6538 6.24498L26.7538 6.41498L21.7638 12.755C20.9838 12.465 20.0838 12.205 19.1038 12.015L20.2038 4.08498C20.2038 4.08498 21.9938 3.40498 23.9038 4.02498Z" fill="#5092FF"/>
<path d="M8.09381 4.02498C6.48381 4.54498 5.62381 5.78498 5.35381 6.23498L5.25381 6.40498L10.2438 12.745C11.0238 12.455 11.9238 12.195 12.9038 12.005L11.8038 4.08498C11.8038 4.08498 10.0138 3.40498 8.09381 4.02498Z" fill="#F8312F"/>
</svg>

<svg xmlns="http://www.w3.org/2000/svg" width="32" height="32" fill="none"><path fill="#433B6B" d="M16.474 21.005h-1.45a.38.38 0 0 0-.38.38v1.09h1.84v1.96h1.01c.36 0 .64-.29.64-.64v-2.15c0-.36-.29-.64-.64-.64h-1.02Z"/><path fill="#635994" d="m14.114 26.165.85 1.42c.04.06.01.14-.05.15l-1.26.39a.15.15 0 0 1-.18-.11c-.01-.04 0-.09.03-.12l.36-.45c.05-.05.06-.13.02-.19l-.42-.72.65-.37Zm3.17 2.63-.86-.79.49-.69 1.12 1.05c.05.05.08.13.07.21l-.15 1c-.03.18-.29.21-.35.03l-.24-.68a.222.222 0 0 0-.08-.13Z"/><path fill="#FF6723" d="M18.414 20.145v1c0 .17-.14.31-.31.31h-3.81c-.17 0-.31-.14-.31-.31v-1h-.89v1c0 .66.54 1.2 1.2 1.2h.72v1.65h-1.15c-.39 0-.75.2-.95.53-.2.33-.22.74-.03 1.09l.52 1.11c.1.18.29.3.49.3.09 0 .18-.02.26-.06.27-.14.38-.48.24-.75l-.52-1.1h2.14l-.37.77c-.27.58-.17 1.26.25 1.73l.57.65c.11.12.26.19.42.19a.556.556 0 0 0 .41-.93l-.57-.65a.44.44 0 0 1-.07-.51l.72-1.51c.01-.02.02-.05.03-.07.03-.06.04-.13.04-.2v-2.22h.66c.66 0 1.2-.54 1.2-1.2v-1h-.89v-.02Z"/><path fill="#433B6B" d="M15.014 21.25v1.745a.38.38 0 0 1-.38-.38v-1.17l.38-.195ZM17.444 21.445v1.55a.38.38 0 0 1-.38-.38V21.25l.38.195Z"/><path fill="#00A6ED" d="M15.784 19.245h.7c.43 0 .77.34.78.79v.79a.24.24 0 0 1-.01.07v.05c0 .56-.46 1.02-1.03 1.02h-.18a.85.85 0 0 1-.85-.85v-.64h.62v-.14h-.66c-.08 0-.14-.06-.14-.14v-.17c0-.43.34-.78.77-.78Z"/><path fill="#433B6B" d="M16.474 20.595h.79v.24h-.79v-.24ZM15.014 23.555h2.43v.44h-2.43v-.44Z"/><path fill="#5092FF" d="M16.984 20.465a.14.14 0 1 0 0-.28.14.14 0 0 0 0 .28Z"/><path fill="#D3D3D3" d="M18.254 11.5c0-.23.18-.41.41-.41.23 0 .41.18.41.41v7.659c.187.07.352.185.48.333L26.56 13.5a.412.412 0 0 1 .54.62l-7.256 6.215a1.182 1.182 0 0 1-1.18 1.14c-.65 0-1.18-.53-1.18-1.18v-.03c0-.506.322-.94.77-1.107v-2.793h-4.5v2.794c.45.167.77.6.77 1.106v.03c0 .65-.53 1.18-1.18 1.18-.65 0-1.18-.53-1.18-1.18v-.03c0-.043.003-.085.008-.127L5.139 14.12a.412.412 0 0 1 .54-.62l6.883 5.883c.108-.096.234-.173.372-.224v-7.66c0-.23.18-.41.41-.41.23 0 .41.18.41.41v4.046h4.5V11.5Zm.77 8.765c0-.2-.16-.36-.36-.36-.2 0-.36.16-.36.36v.03c0 .2.16.36.36.36.2 0 .36-.16.36-.36v-.03Z"/><path fill="#26EAFC" d="M16.294 20.325h-.98a.38.38 0 1 0 0 .76h.01c.1 0 .19-.06.22-.15l.02-.06a.13.13 0 0 1 .24 0l.02.06c.04.09.13.15.22.15h.23c.21 0 .38-.17.38-.38.02-.2-.15-.38-.36-.38Z"/><path fill="#D3D3D3" d="M15.314 20.235h.98c.258 0 .473.22.45.474a.47.47 0 0 1-.47.466h-.23a.34.34 0 0 1-.302-.204l-.004-.008-.018-.056a.04.04 0 0 0-.072 0l-.019.056a.319.319 0 0 1-.305.212h-.01a.47.47 0 1 1 0-.94Zm-.29.47c0 .16.13.29.29.29h.01c.066 0 .118-.04.135-.089l.021-.065a.22.22 0 0 1 .407 0l.002.005.019.056a.16.16 0 0 0 .136.093h.23c.16 0 .29-.13.29-.29v-.01c.014-.142-.11-.28-.27-.28h-.98a.29.29 0 0 0-.29.29Z"/><path fill="#FF6723" d="M13.314 20.715h.02c.22 0 .39-.17.39-.38v-.21h-.79v.21c0 .21.17.38.38.38Zm4.96-.36c0 .21.17.39.39.39s.39-.18.4-.39v-.21h-.79v.21Z"/><path fill="#00D26A" d="M20.204 4.085 22 8.5l-2.895 3.504c-.952-.184-1.99-.299-3.101-.299a16.499 16.499 0 0 0-3.14.311.239.239 0 0 1 .04-.011L9.5 8.5l2.304-4.415c.01-.02.03-.04.05-.06 2.11-2.7 6.2-2.7 8.31 0 .01.01.017.02.025.03a.3.3 0 0 0 .02.026l-.005.004Z"/><path fill="#F9C23C" d="M5.254 6.415s.57-1.17 1.87-1.95l4.3 7.9c-1.67.49-2.98 1.14-3.79 1.61-.59.35-1.23.51-1.87.51a3.745 3.745 0 0 1-3.75-3.75c-.26-3.61 3.24-4.32 3.24-4.32ZM29.994 10.725c0 .65-.16 1.3-.51 1.89a3.744 3.744 0 0 1-5.11 1.36c-.73-.43-1.86-1-3.3-1.46l5.38-6.59c.2.28.3.48.3.48s3.5.71 3.24 4.32Z"/><path fill="#5092FF" d="M23.904 4.025c1.62.52 2.48 1.76 2.75 2.22l.1.17-4.99 6.34c-.78-.29-1.68-.55-2.66-.74l1.1-7.93s1.79-.68 3.7-.06Z"/><path fill="#F8312F" d="M8.094 4.025c-1.61.52-2.47 1.76-2.74 2.21l-.1.17 4.99 6.34c.78-.29 1.68-.55 2.66-.74l-1.1-7.92s-1.79-.68-3.71-.06Z"/></svg>
